Suru++-Ubuntu/apps/scalable/arista.svg

<svg width="256" height="256" version="1.1" viewBox="0 0 67.73 67.73" xmlns="http://www.w3.org/2000/svg" xmlns:xlink="http://www.w3.org/1999/xlink">
 <defs>
  <clipPath id="clipPath1082-3-5">
   <path d="M 361.9375,-212 C 507.2348,-212 528,-191.28677 528,-46.125 V 70.125 C 528,215.28618 507.2348,236 361.9375,236 H 214.0625 C 68.7652,236 48,215.28618 48,70.125 V -46.125 C 48,-191.28677 68.7652,-212 214.0625,-212 Z" style="fill:#8c59d9"/>
  </clipPath>
  <filter id="filter4569-2" x="-.01" y="-.01" width="1.023" height="1.025" style="color-interpolation-filters:sRGB">
   <feGaussianBlur stdDeviation="1.16"/>
  </filter>
  <filter id="filter913" x="-.02" y="-.03" width="1.046" height="1.05" style="color-interpolation-filters:sRGB">
   <feGaussianBlur stdDeviation="2.32"/>
  </filter>
  <linearGradient id="linearGradient906" x1="296" x2="296" y1="-212" y2="236" gradientUnits="userSpaceOnUse">
   <stop style="stop-color:#ffffff" offset="0"/>
   <stop style="stop-color:#ffffff;stop-opacity:.09803922" offset=".125"/>
   <stop style="stop-color:#000000;stop-opacity:.09803922" offset=".925"/>
   <stop style="stop-color:#000000;stop-opacity:.49803922" offset="1"/>
  </linearGradient>
  <linearGradient id="linearGradient4206" x1="220.4" x2="179.3" y1="305.9" y2="194.4" gradientTransform="matrix(1.4687782,0,0,8.2362894,-212.97852,-1679.0039)" gradientUnits="userSpaceOnUse">
   <stop style="stop-color:#ffffff" offset="0"/>
   <stop style="stop-color:#ffffff;stop-opacity:0" offset="1"/>
  </linearGradient>
 </defs>
 <g transform="translate(0,-229.26666)">
  <path transform="matrix(.26970778 0 0 .26970778 -7.1289177 220.56049)" d="m188.96876 45.999995c72.64865 0 83.03125 10.356615 83.03125 82.937505v58.125c0 72.58059-10.3826 82.9375-83.03125 82.9375h-73.9375c-72.648654 0-83.031254-10.35691-83.031254-82.9375v-58.125c0-72.58089 10.3826-82.937505 83.031254-82.937505z" style="filter:url(#filter913);opacity:.2"/>
  <path transform="matrix(.26970778 0 0 .26970778 -7.1289177 220.56049)" d="m188.96876 43.999995c72.64865 0 83.03125 10.356615 83.03125 82.937505v58.125c0 72.58059-10.3826 82.9375-83.03125 82.9375h-73.9375c-72.648654 0-83.031254-10.35691-83.031254-82.9375v-58.125c0-72.58089 10.3826-82.937505 83.031254-82.937505z" style="filter:url(#filter4569-2);opacity:.1"/>
  <path d="m23.895905 232.42763c-9.797337 0-15.39413 0.69699-18.544517 3.84334-3.150381 3.14634-3.849657 8.73736-3.849657 18.52555v15.67677c0 9.78815 0.699276 15.3792 3.849657 18.52555 3.150387 3.14636 8.7471787 3.84333 18.544517 3.84333h19.94152c9.797339 0 15.394134-0.69697 18.544517-3.84333 3.150384-3.14635 3.849659-8.7374 3.849659-18.52555v-15.67677c0-9.78819-0.699275-15.37921-3.849659-18.52555-3.150383-3.14635-8.74718-3.84334-18.544517-3.84334z" style="fill:#4d4d4d"/>
  <path d="m1.5017313 269.93387v0.53942c0 9.78815 0.699276 15.3792 3.849657 18.52555 3.150387 3.14636 8.7471787 3.84333 18.544517 3.84333h19.94152c9.797339 0 15.394134-0.69697 18.544517-3.84333 3.150384-3.14635 3.849659-8.7374 3.849659-18.52555v-0.53942c0 9.78815-0.699275 15.3792-3.849659 18.52555-3.150383 3.14636-8.747178 3.84334-18.544517 3.84334h-19.94152c-9.797338 0-15.39413-0.69698-18.544517-3.84334-3.150381-3.14635-3.849657-8.7374-3.849657-18.52555z" style="fill:#131313;opacity:.2"/>
  <path transform="matrix(.13485389 0 0 .13485389 -4.9712557 261.01666)" d="M 361.9375,-212 C 507.2348,-212 528,-191.28677 528,-46.125 V 70.125 C 528,215.28618 507.2348,236 361.9375,236 H 214.0625 C 68.7652,236 48,215.28618 48,70.125 V -46.125 C 48,-191.28677 68.7652,-212 214.0625,-212 Z" clip-path="url(#clipPath1082-3-5)" style="fill:none;opacity:.4;stroke-linecap:round;stroke-linejoin:round;stroke-width:8;stroke:url(#linearGradient906)"/>
  <g transform="translate(-.83022235 6.940615)">
   <path d="m47.795786 266.18791 10.276486 2.31578-0.434237 1.44739h-11.144921z" style="fill:#1db9f1"/>
   <path d="m29.558642 268.50369h10.276492v1.44739h-10.276492z" style="fill:#74db30"/>
   <path d="m22.321687 268.50369h-10.855443l0.289492 1.44739h11.144921z" style="fill:#fd3146"/>
   <path d="m45.624704 241.43749h8.684352l3.763216 27.0662h-11.144914z" style="fill:#2657c6"/>
   <path d="m30.427083 241.43749h8.539614l0.868437 27.0662h-10.276492z" style="fill:#49a222"/>
   <path d="m23.769082 241.43749h-8.684353l-3.763224 27.0662h11.144921z" style="fill:#b91c27"/>
  </g>
  <path transform="matrix(.26458333 0 0 .26458333 0 229.26666)" d="m248.74023 60.404297c-0.34492-2.931589-0.73689-5.739941-1.22656-8.335938-0.53727-2.848413-1.16609-5.501588-1.90234-7.970703-0.73626-2.469115-1.57992-4.75345-2.54102-6.86914-0.96109-2.11569-2.04015-4.061471-3.25195-5.84961-1.2118-1.788138-2.55655-3.41979-4.04492-4.90625-1.48837-1.486464-3.11989-2.827003-4.91016-4.037109-1.79026-1.210106-3.73936-2.290381-5.85742-3.25s-4.40521-1.800153-6.87695-2.535156c-2.47175-0.735004-5.12718-1.364132-7.97852-1.900391s-5.89943-0.97841-9.15625-1.341797-6.72195-0.646895-10.41016-0.863281c-7.3764-0.432773-15.64111-0.597656-24.89843-0.597656h-75.371097c-9.257326 0-17.522029 0.164883-24.898437 0.597656-3.688204 0.216386-7.153336 0.499894-10.410157 0.863281s-6.304914 0.805538-9.15625 1.341797c-2.851335 0.536259-5.506767 1.165387-7.978515 1.900391-2.471748 0.735003-4.758895 1.575537-6.876953 2.535156-2.118059 0.959619-4.067156 2.039894-5.857422 3.25s-3.421785 2.550645-4.910157 4.037109c-1.488368 1.48646-2.833121 3.118112-4.044921 4.90625-1.211801 1.788139-2.290858 3.73392-3.251953 5.84961-0.961096 2.11569-1.804763 4.400025-2.541016 6.86914-0.7362536 2.469115-1.3650683 5.12229-1.9023439 7.970703-0.5372755 2.848414-0.9815419 5.892899-1.3457031 9.146485-0.3641612 3.253585-0.6483238 6.715759-0.8652344 10.40039-0.4338211 7.369262-0.5996094 15.626317-0.5996094 24.875v59.251956c0 9.24864 0.1657883 17.50575 0.5996094 24.875 0.2169106 3.68462 0.5010732 7.1468 0.8652344 10.40039 0.3641612 3.25358 0.8084276 6.29807 1.3457031 9.14648 0.5372756 2.84842 1.1660903 5.50158 1.9023439 7.97071 0.736253 2.46912 1.57992 4.75344 2.541016 6.86914 0.84044 1.85009 1.81284 3.51685 2.84375 5.11523 68.954569-111.91176 162.87081-109.69195 232.96679-159.71484z" style="fill:url(#linearGradient4206);opacity:.1351;stroke-width:3.2167559;stroke:url(#radialGradient4208)"/>
 </g>
</svg>

<svg xmlns="http://www.w3.org/2000/svg" xmlns:xlink="http://www.w3.org/1999/xlink" width="256" height="256" version="1.1" viewBox="0 0 67.73 67.73">
 <defs>
  <linearGradient id="linearGradient1013">
   <stop offset="0" style="stop-color:#ffffff"/>
   <stop style="stop-color:#ffffff;stop-opacity:0.09803922" offset=".125"/>
   <stop style="stop-color:#000000;stop-opacity:0.09803922" offset=".925"/>
   <stop offset="1" style="stop-color:#000000;stop-opacity:0.49803922"/>
  </linearGradient>
  <clipPath id="clipPath1082-3-5" clipPathUnits="userSpaceOnUse">
   <path d="M 361.9375,-212 C 507.2348,-212 528,-191.28677 528,-46.125 V 70.125 C 528,215.28618 507.2348,236 361.9375,236 H 214.0625 C 68.7652,236 48,215.28618 48,70.125 V -46.125 C 48,-191.28677 68.7652,-212 214.0625,-212 Z" style="fill:#8c59d9"/>
  </clipPath>
  <filter style="color-interpolation-filters:sRGB" id="filter4569-2" width="1.023" height="1.025" x="-.01" y="-.01">
   <feGaussianBlur stdDeviation="1.16"/>
  </filter>
  <filter style="color-interpolation-filters:sRGB" id="filter913" width="1.046" height="1.05" x="-.02" y="-.03">
   <feGaussianBlur stdDeviation="2.32"/>
  </filter>
  <linearGradient id="linearGradient906" x1="296" x2="296" y1="-212" y2="236" gradientUnits="userSpaceOnUse" xlink:href="#linearGradient1013"/>
  <linearGradient id="linearGradient4206" x1="220.4" x2="179.3" y1="305.9" y2="194.4" gradientTransform="matrix(1.4687782,0,0,8.2362894,-212.97852,-1679.0039)" gradientUnits="userSpaceOnUse" xlink:href="#linearGradient4163-5"/>
  <linearGradient id="linearGradient4163-5">
   <stop style="stop-color:#ffffff" offset="0"/>
   <stop style="stop-color:#ffffff;stop-opacity:0" offset="1"/>
  </linearGradient>
 </defs>
 <g transform="translate(0,-229.26666)">
  <path style="opacity:0.2;filter:url(#filter913)" d="m 188.96876,45.999995 c 72.64865,0 83.03125,10.356615 83.03125,82.937505 v 58.125 c 0,72.58059 -10.3826,82.9375 -83.03125,82.9375 h -73.9375 C 42.382606,270 32.000006,259.64309 32.000006,187.0625 v -58.125 c 0,-72.58089 10.3826,-82.937505 83.031254,-82.937505 z" transform="matrix(0.26970778,0,0,0.26970778,-7.1289177,220.56049)"/>
  <path d="m 188.96876,43.999995 c 72.64865,0 83.03125,10.356615 83.03125,82.937505 v 58.125 c 0,72.58059 -10.3826,82.9375 -83.03125,82.9375 h -73.9375 C 42.382606,268 32.000006,257.64309 32.000006,185.0625 v -58.125 c 0,-72.58089 10.3826,-82.937505 83.031254,-82.937505 z" transform="matrix(0.26970778,0,0,0.26970778,-7.1289177,220.56049)" style="opacity:0.1;filter:url(#filter4569-2)"/>
  <path style="fill:#4d4d4d" d="m 23.895905,232.42763 c -9.797337,0 -15.3941297,0.69699 -18.5445167,3.84334 -3.150381,3.14634 -3.849657,8.73736 -3.849657,18.52555 v 15.67677 c 0,9.78815 0.699276,15.3792 3.849657,18.52555 3.150387,3.14636 8.7471787,3.84333 18.5445167,3.84333 h 19.94152 c 9.797339,0 15.394134,-0.69697 18.544517,-3.84333 3.150384,-3.14635 3.849659,-8.7374 3.849659,-18.52555 v -15.67677 c 0,-9.78819 -0.699275,-15.37921 -3.849659,-18.52555 -3.150383,-3.14635 -8.74718,-3.84334 -18.544517,-3.84334 z"/>
  <path style="opacity:0.2;fill:#131313" d="m 1.5017313,269.93387 v 0.53942 c 0,9.78815 0.699276,15.3792 3.849657,18.52555 3.150387,3.14636 8.7471787,3.84333 18.5445167,3.84333 h 19.94152 c 9.797339,0 15.394134,-0.69697 18.544517,-3.84333 3.150384,-3.14635 3.849659,-8.7374 3.849659,-18.52555 v -0.53942 c 0,9.78815 -0.699275,15.3792 -3.849659,18.52555 -3.150383,3.14636 -8.747178,3.84334 -18.544517,3.84334 h -19.94152 c -9.797338,0 -15.3941297,-0.69698 -18.5445167,-3.84334 -3.150381,-3.14635 -3.849657,-8.7374 -3.849657,-18.52555 z"/>
  <path d="M 361.9375,-212 C 507.2348,-212 528,-191.28677 528,-46.125 V 70.125 C 528,215.28618 507.2348,236 361.9375,236 H 214.0625 C 68.7652,236 48,215.28618 48,70.125 V -46.125 C 48,-191.28677 68.7652,-212 214.0625,-212 Z" clip-path="url(#clipPath1082-3-5)" transform="matrix(0.13485389,0,0,0.13485389,-4.9712557,261.01666)" style="opacity:0.4;fill:none;stroke:url(#linearGradient906);stroke-width:8;stroke-linecap:round;stroke-linejoin:round"/>
  <g transform="translate(-0.83022235,6.940615)">
   <path style="fill:#1db9f1" d="m 47.795786,266.18791 10.276486,2.31578 -0.434237,1.44739 H 46.493114 Z"/>
   <path style="fill:#74db30" d="m 29.558642,268.50369 h 10.276492 v 1.44739 H 29.558642 Z"/>
   <path d="M 22.321687,268.50369 H 11.466244 l 0.289492,1.44739 h 11.144921 z" style="fill:#fd3146"/>
   <path d="m 45.624704,241.43749 h 8.684352 l 3.763216,27.0662 H 46.927358 Z" style="fill:#2657c6"/>
   <path d="m 30.427083,241.43749 h 8.539614 l 0.868437,27.0662 H 29.558642 Z" style="fill:#49a222"/>
   <path style="fill:#b91c27" d="m 23.769082,241.43749 h -8.684353 l -3.763224,27.0662 h 11.144921 z"/>
  </g>
  <path style="opacity:0.1351;fill:url(#linearGradient4206);stroke:url(#radialGradient4208);stroke-width:3.21675587" d="M 248.74023 60.404297 C 248.39531 57.472708 248.00334 54.664356 247.51367 52.068359 C 246.9764 49.219946 246.34758 46.566771 245.61133 44.097656 C 244.87507 41.628541 244.03141 39.344206 243.07031 37.228516 C 242.10922 35.112826 241.03016 33.167045 239.81836 31.378906 C 238.60656 29.590768 237.26181 27.959116 235.77344 26.472656 C 234.28507 24.986192 232.65355 23.645653 230.86328 22.435547 C 229.07302 21.225441 227.12392 20.145166 225.00586 19.185547 C 222.8878 18.225928 220.60065 17.385394 218.12891 16.650391 C 215.65716 15.915387 213.00173 15.286259 210.15039 14.75 C 207.29905 14.213741 204.25096 13.77159 200.99414 13.408203 C 197.73732 13.044816 194.27219 12.761308 190.58398 12.544922 C 183.20758 12.112149 174.94287 11.947266 165.68555 11.947266 L 90.314453 11.947266 C 81.057127 11.947266 72.792424 12.112149 65.416016 12.544922 C 61.727812 12.761308 58.26268 13.044816 55.005859 13.408203 C 51.749038 13.77159 48.700945 14.213741 45.849609 14.75 C 42.998274 15.286259 40.342842 15.915387 37.871094 16.650391 C 35.399346 17.385394 33.112199 18.225928 30.994141 19.185547 C 28.876082 20.145166 26.926985 21.225441 25.136719 22.435547 C 23.346453 23.645653 21.714934 24.986192 20.226562 26.472656 C 18.738194 27.959116 17.393441 29.590768 16.181641 31.378906 C 14.96984 33.167045 13.890783 35.112826 12.929688 37.228516 C 11.968592 39.344206 11.124925 41.628541 10.388672 44.097656 C 9.6524184 46.566771 9.0236037 49.219946 8.4863281 52.068359 C 7.9490526 54.916773 7.5047862 57.961258 7.140625 61.214844 C 6.7764638 64.468429 6.4923012 67.930603 6.2753906 71.615234 C 5.8415695 78.984496 5.6757812 87.241551 5.6757812 96.490234 L 5.6757812 155.74219 C 5.6757812 164.99083 5.8415695 173.24794 6.2753906 180.61719 C 6.4923012 184.30181 6.7764638 187.76399 7.140625 191.01758 C 7.5047862 194.27116 7.9490526 197.31565 8.4863281 200.16406 C 9.0236037 203.01248 9.6524184 205.66564 10.388672 208.13477 C 11.124925 210.60389 11.968592 212.88821 12.929688 215.00391 C 13.770128 216.854 14.742528 218.52076 15.773438 220.11914 C 84.728007 108.20738 178.64425 110.42719 248.74023 60.404297 z" transform="matrix(0.26458333,0,0,0.26458333,0,229.26666)"/>
 </g>
</svg>
